X:090
T: Happy Mistake (The)
N: O'Farrell's Pocket Companion v.1 (Sky ed. p.20)
M: 6/8
L: 1/8
R: jig
Q: 320
K: G
D/E/|GAG AGA|B2g edB|G2G AGA|BGE E2D|
GAG AGA|B2g edB|c2A BGE|GAG G2 :|
d|gfg efg|fdB B2d|gfg efg|afd def|
g2e agf|gfe dBG|c2A BGE|GAG G2 :|
